X:1
T: Billy McCormick
C:
R:Jig
Q:180
K:Em
M:6/8
L:1/16
E2|A2B2A2 A2B2d2|e2d2B2 g2f2e2|G2A2G2 B2A2G2|d2B2G2 A2G2E2|A2B2A2 A2B2d2|e2d2B2 d2e2f2|g2f2e2 f2d2B2|B2A2G2 A4E2|
A2B2A2 A2B2d2|e2d2B2 g2f2e2|G2A2G2 B2A2G2|d2B2G2 A2G2E2|A2B2A2 A2B2d2|e2d2B2 d2e2f2|g2f2e2 f2d2B2|B2A2G2 A4e2|
a2g2a2 a2g2e2|a2b2a2 a2g2e2|g2f2g2 g2d2B2|G2B2c2 d2e2g2|a2b2a2 g2a2g2|e2d2B2 c2d2e2|g2f2e2 f2d2B2|B2A2G2 A4e2|
a2g2a2 a2g2e2|a2b2a2 a2g2e2|g2f2g2 g2d2B2|G2B2c2 d2e2g2|a2b2a2 g2a2g2|e2d2B2 c2d2e2|g2f2e2 f2d2B2|B2A2G2 A4||
